X: 1
T: The Flowers Of Red Hill
R: reel
M: 4/4
L: 1/8
K: Ador
|: e~A3 gAfA | e~A3 edBd | e~A3 e2af | gedB GABd :||
| e~a3 b~a3 | eaag egdg | e~a3 b~a3 | edef gedg |
e~a3 b~a3 | eaaf ~g3a | b2bg aged | eaag edBd ||

|: eAAg AAfA | eAA ~e2 dBd | eAAe ~e2 af | gedB GABd :||




edBA  |: E~A,3 GA,FA, | E~A,3 EDB,D | E~A,3 E2AF | GEDB, G,A,B,D :||
| E~A3 B~A3 | EAAG EGDG | E~A3 B~A3 | EDEF GEDG |
E~A3 B~A3 | EAAF ~G3A | B2BG AGED | EAAG EABd ||